doc2/public/assets/images/arrow.svg

<?xml version="1.0" encoding="UTF-8"?>
<svg enable-background="new 0 0 512 512" version="1.1" viewBox="0 0 512 512" xml:space="preserve" xmlns="http://www.w3.org/2000/svg">
		<path d="m503.84 8.333c-0.03-0.03-0.054-0.062-0.084-0.092s-0.062-0.054-0.092-0.082c-7.968-7.902-19.398-10.276-29.86-6.185l-456.02 178.31c-12.056 4.713-19.119 16.516-17.58 29.367 1.543 12.852 11.196 22.649 24.023 24.378l222.88 30.058c0.417 0.057 0.751 0.389 0.808 0.809l30.058 222.88c1.729 12.827 11.526 22.482 24.378 24.023 1.174 0.141 2.337 0.208 3.489 0.208 11.458 0 21.594-6.834 25.878-17.787l178.31-456.02c4.089-10.46 1.716-21.888-6.187-29.857zm-476 198.92c-0.5-0.068-0.725-0.097-0.812-0.821-0.086-0.724 0.126-0.808 0.593-0.989l426.65-166.83-199.56 199.56c-1.301-0.377-226.88-30.92-226.88-30.92zm278.71 277.12c-0.182 0.467-0.255 0.682-0.989 0.592-0.723-0.086-0.754-0.313-0.82-0.81 0 0-30.543-225.58-30.92-226.88l199.56-199.56-166.83 426.65z"/>
</svg>

<?xml version="1.0" encoding="iso-8859-1"?>
<!-- Generator: Adobe Illustrator 19.0.0, SVG Export Plug-In . SVG Version: 6.00 Build 0)  -->
<svg version="1.1" id="Layer_1" xmlns="http://www.w3.org/2000/svg" xmlns:xlink="http://www.w3.org/1999/xlink" x="0px" y="0px"
	 viewBox="0 0 512 512" style="enable-background:new 0 0 512 512;" xml:space="preserve">
<g>
	<g>
		<path d="M503.842,8.333c-0.03-0.03-0.054-0.062-0.084-0.092s-0.062-0.054-0.092-0.082c-7.968-7.902-19.398-10.276-29.86-6.185
			L17.789,180.281c-12.056,4.713-19.119,16.516-17.58,29.367c1.543,12.852,11.196,22.649,24.023,24.378l222.877,30.058
			c0.417,0.057,0.751,0.389,0.808,0.809l30.058,222.875c1.729,12.827,11.526,22.482,24.378,24.023
			c1.174,0.141,2.337,0.208,3.489,0.208c11.458,0,21.594-6.834,25.878-17.787L510.029,38.19
			C514.118,27.73,511.745,16.302,503.842,8.333z M27.847,207.253c-0.5-0.068-0.725-0.097-0.812-0.821
			c-0.086-0.724,0.126-0.808,0.593-0.989L454.282,38.616L254.727,238.173C253.426,237.796,27.847,207.253,27.847,207.253z
			 M306.558,484.373c-0.182,0.467-0.255,0.682-0.989,0.592c-0.723-0.086-0.754-0.313-0.82-0.81c0,0-30.543-225.579-30.92-226.88
			L473.384,57.719L306.558,484.373z"/>
	</g>
</g>
<g>
</g>
<g>
</g>
<g>
</g>
<g>
</g>
<g>
</g>
<g>
</g>
<g>
</g>
<g>
</g>
<g>
</g>
<g>
</g>
<g>
</g>
<g>
</g>
<g>
</g>
<g>
</g>
<g>
</g>
</svg>
